Adwaita++-Dark/actions/16/im-user-busy.svg

<svg height="16" viewBox="0 0 16 16" width="16" xmlns="http://www.w3.org/2000/svg">
  <path d="m8 0a4 4 0 0 0 -4 4 4 4 0 0 0 4 4 4 4 0 0 0 4-4 4 4 0 0 0 -4-4zm0 8.9882812c-4.028.0048-7.4965 3.0157188-8 7.0117188h9.7128906c-1.0343-.827-1.7128906-2.082-1.7128906-3.5 0-1.403.6653406-2.6592281 1.6816406-3.4863281-.7385-.0146-1.4943406-.0239906-1.6816406-.0253907zm4.5.0117188a3.5 3.5 0 0 0 -3.5 3.5 3.5 3.5 0 0 0 3.5 3.5 3.5 3.5 0 0 0 3.5-3.5 3.5 3.5 0 0 0 -3.5-3.5zm-.5 1h1v2h2v1h-3v-1z" fill="#e6ddff"/>
</svg>

<svg xmlns="http://www.w3.org/2000/svg" width="16" height="16" viewBox="0 0 16 16">
 <defs>
  <style id="current-color-scheme" type="text/css">
   .ColorScheme-Text { color:#E6DDFF; } .ColorScheme-Highlight { color:#4285f4; }
  </style>
 </defs>
 <path style="fill:currentColor" class="ColorScheme-Text" d="M 8 0 A 4 4 0 0 0 4 4 A 4 4 0 0 0 8 8 A 4 4 0 0 0 12 4 A 4 4 0 0 0 8 0 z M 8 8.9882812 C 3.972 8.9930812 0.5035 12.004 0 16 L 9.7128906 16 C 8.6785906 15.173 8 13.918 8 12.5 C 8 11.097 8.6653406 9.8407719 9.6816406 9.0136719 C 8.9431406 8.9990719 8.1873 8.9896813 8 8.9882812 z M 12.5 9 A 3.5 3.5 0 0 0 9 12.5 A 3.5 3.5 0 0 0 12.5 16 A 3.5 3.5 0 0 0 16 12.5 A 3.5 3.5 0 0 0 12.5 9 z M 12 10 L 13 10 L 13 12 L 15 12 L 15 13 L 12 13 L 12 12 L 12 10 z"/>
</svg>
